X:1
M:3/4
K:D
DG GB|cB cG|BA AA|c2 cA|F3/2G/2 AB|A3/2A/2 FF|\
FA DE|
DF GF|G3/2G/2 GF|GB AF|EF FG|A2 A3/2A/2|FG FF|G3/2A/2 Bc|
dc de|f2 ee|d2 cB|A2 G3/2A/2|BA EF|GB dd|e2 d3/2B/2|A2 A2|\
GG FG|A3::
d|dc BA|A2 G3/2F/2|GB AA|A2 G3/2G/2|AB B2|dd dB|G2 FA|
A3/2A/2 AA|G2 F2|F2 FF|EE FA|B2 E2|\
F3/2A/2 GG|G4||